brandFactory_export/2.Regular/Cita_2Regular.svg

<?xml version="1.0" encoding="UTF-8"?>
<svg width="24px" height="24px" viewBox="0 0 24 24" version="1.1" xmlns="http://www.w3.org/2000/svg" xmlns:xlink="http://www.w3.org/1999/xlink">
    <title>2.Regular/Cita_2Regular</title>
    <g id="Symbols" stroke="none" stroke-width="1" fill="none" fill-rule="evenodd">
        <g id="2.Regular/Cita_2Regular" fill="#5CB615" fill-rule="nonzero">
            <path d="M15.1630252,16.7361345 L15.1630252,15.5294118 L13.189916,15.5294118 C12.7831933,15.5294118 12.4537815,15.2033613 12.4504202,14.7966387 L12.4504202,12.8470588 L11.2369748,12.8470588 L11.2369748,14.8 C11.2369748,15.2033613 10.907563,15.5327731 10.497479,15.5327731 L8.52773109,15.5327731 L8.52773109,16.7327731 L10.497479,16.7327731 C10.9042017,16.7327731 11.2369748,17.0621849 11.2369748,17.4655462 L11.2369748,19.4151261 L12.4571429,19.4151261 L12.4504202,17.4689076 C12.4537815,17.0621849 12.7831933,16.7361345 13.189916,16.7361345 L15.1630252,16.7361345 L15.1630252,16.7361345 Z M15.3176471,14.0672269 C16.0336134,14.0672269 16.6386555,14.6252101 16.6386555,15.2907563 L16.6386555,16.9747899 C16.6386555,17.6369748 16.0336134,18.1983193 15.3176471,18.1983193 L13.9294118,18.1983193 L13.9327731,19.5731092 C13.9327731,20.2823529 13.3680672,20.8773109 12.6957983,20.8773109 L10.9915966,20.8773109 C10.3226891,20.8773109 9.75798319,20.2823529 9.75798319,19.5731092 L9.75798319,18.1983193 L8.3697479,18.1983193 C7.64369748,18.1983193 7.05210084,17.6504202 7.05210084,16.9747899 L7.05210084,15.2941176 C7.05210084,14.6319328 7.65378151,14.0705882 8.3697479,14.0705882 L9.76134454,14.0705882 L9.76134454,12.692437 C9.76134454,11.9831933 10.3260504,11.3848739 10.9983193,11.3848739 L12.6957983,11.3848739 C13.3647059,11.3848739 13.9294118,11.9831933 13.9294118,12.692437 L13.9294118,14.0672269 L15.3176471,14.0672269 L15.3176471,14.0672269 Z M19.6638655,22.1613445 C22.1781513,22.1613445 22.1781513,19.9932773 22.1781513,19.2806723 L22.1781513,10.2722689 L1.51260504,10.2722689 L1.51260504,19.3008403 C1.51260504,19.3344538 1.51260504,19.3680672 1.5092437,19.4016807 C1.5092437,19.4016807 1.45546218,20.6453782 2.20168067,21.4218487 C2.65882353,21.8991597 3.39495798,22.1411765 4.37647059,22.1411765 L19.2840336,22.1411765 C19.3445378,22.1411765 19.405042,22.1445378 19.4655462,22.1546218 C19.4789916,22.1546218 19.5563025,22.1613445 19.6638655,22.1613445 Z M2.53445378,4.44033613 C2.28235294,4.59831933 1.51260504,5.08235294 1.51260504,6.85714286 L1.51260504,8.81008403 L22.1747899,8.81008403 L22.1747899,6.88067227 C22.1747899,6.84369748 22.1747899,6.80336134 22.1781513,6.76638655 C22.1781513,6.76638655 22.2420168,5.53613445 21.5058824,4.75966387 C21.0420168,4.27226891 20.2957983,4.02689076 19.2806723,4.02689076 L17.902521,4.02689076 L17.902521,4.24201681 C17.902521,4.64537815 17.5731092,4.97142857 17.1630252,4.97142857 C16.7563025,4.97142857 16.4268908,4.64537815 16.4235294,4.24201681 L16.4235294,4.02689076 L7.26722689,4.03361345 L7.26722689,4.24537815 C7.26722689,4.6487395 6.93781513,4.97478992 6.52773109,4.97478992 C6.1210084,4.97478992 5.79159664,4.6487395 5.78823529,4.24537815 L5.78823529,4.03361345 C4.90084034,4.03361345 4.35966387,4.03697479 4.35966387,4.03697479 C4.31596639,4.03697479 4.27226891,4.03361345 4.22857143,4.0302521 C4.22521008,4.0302521 4.18487395,4.02689076 4.12436975,4.02689076 C3.8487395,4.02352941 3.13277311,4.06386555 2.53445378,4.44033613 Z M19.2840336,2.56134454 C23.9966387,2.56134454 23.6504202,6.87731092 23.6504202,6.87731092 L23.6537815,19.2806723 C23.6537815,23.2638655 20.7226891,23.6235294 19.6638655,23.6235294 C19.4319328,23.6235294 19.287395,23.6033613 19.287395,23.6033613 L4.37983193,23.6033613 C-0.258823529,23.6033613 0.0369747899,19.3008403 0.0369747899,19.3008403 L0.0369747899,6.85378151 C0.0369747899,2.84705882 3.22352941,2.56134454 4.12773109,2.56134454 C4.2789916,2.56134454 4.36302521,2.56806723 4.36302521,2.56806723 L5.79159664,2.56470588 L5.79159664,0.732773109 C5.79159664,0.329411765 6.1210084,0 6.53109244,0 C6.94117647,0 7.27058824,0.32605042 7.27058824,0.732773109 L7.27058824,2.56806723 L16.4302521,2.56134454 L16.4302521,0.732773109 C16.4302521,0.329411765 16.7596639,0 17.1697479,0 C17.5798319,0 17.9092437,0.32605042 17.9092437,0.732773109 L17.9092437,2.56470588 L19.2840336,2.56470588 L19.2840336,2.56134454 L19.2840336,2.56134454 Z" id="Cita_2Regular"></path>
        </g>
    </g>
</svg>

<svg width="24" height="24" viewBox="0 0 24 24" xmlns="http://www.w3.org/2000/svg"><path d="M15.163 16.736V15.53H13.19a.738.738 0 01-.74-.732v-1.95h-1.213V14.8c0 .403-.33.733-.74.733h-1.97v1.2h1.97c.407 0 .74.33.74.733v1.95h1.22l-.007-1.947a.738.738 0 01.74-.733h1.973zm.155-2.669c.716 0 1.32.558 1.32 1.224v1.684c0 .662-.604 1.223-1.32 1.223h-1.389l.004 1.375c0 .71-.565 1.304-1.237 1.304h-1.704c-.67 0-1.234-.595-1.234-1.304v-1.375H8.37c-.726 0-1.318-.548-1.318-1.223v-1.68c0-.663.602-1.224 1.318-1.224H9.76v-1.379c0-.709.565-1.307 1.237-1.307h1.698c.669 0 1.233.598 1.233 1.307v1.375h1.389zm4.346 8.094c2.514 0 2.514-2.168 2.514-2.88v-9.009H1.513v9.029c0 .033 0 .067-.004.1 0 0-.054 1.244.693 2.02.457.478 1.193.72 2.174.72h14.908c.06 0 .121.004.182.014.013 0 .09.006.198.006zM2.534 4.441c-.252.157-1.021.641-1.021 2.416V8.81h20.662V6.88c0-.036 0-.077.003-.114 0 0 .064-1.23-.672-2.006-.464-.488-1.21-.733-2.225-.733h-1.378v.215c0 .403-.33.73-.74.73a.737.737 0 01-.74-.73v-.215l-9.156.007v.211c0 .404-.33.73-.74.73a.737.737 0 01-.739-.73v-.211c-.887 0-1.428.003-1.428.003-.044 0-.088-.003-.131-.007-.004 0-.044-.003-.105-.003-.275-.003-.991.037-1.59.413zm16.75-1.88c4.713 0 4.366 4.316 4.366 4.316l.004 12.404c0 3.983-2.931 4.343-3.99 4.343-.232 0-.377-.02-.377-.02H4.38C-.26 23.603.037 19.3.037 19.3V6.854c0-4.007 3.187-4.293 4.09-4.293.152 0 .236.007.236.007l1.429-.003V.733c0-.404.329-.733.74-.733.41 0 .739.326.739.733v1.835l9.16-.007V.733c0-.404.329-.733.739-.733s.74.326.74.733v1.832h1.374V2.56z" fill="#5CB615" fill-rule="nonzero"/></svg>
